images/people/people-18.svg

<?xml version="1.0" standalone="no"?><!DOCTYPE svg PUBLIC "-//W3C//DTD SVG 1.1//EN" "http://www.w3.org/Graphics/SVG/1.1/DTD/svg11.dtd"><svg width="120px" height="192px" version="1.1" xmlns="http://www.w3.org/2000/svg" xmlns:xlink="http://www.w3.org/1999/xlink" xml:space="preserve" style="fill-rule:evenodd;clip-rule:evenodd;stroke-linejoin:round;stroke-miterlimit:1.41421;"><g><g id="people-18" transform="matrix(1,0,0,1,-162.81,-48)"><g transform="matrix(1,0,0,1,0,-12)"><path d="M215.208,140.25l4.798,-1.888l10.425,-0.406l-1.975,-8.332l-12.688,-0.233l-0.56,10.859Z" style="fill:#e4e2dc;fill-rule:nonzero;"/></g><g transform="matrix(1,0,0,1,0,-12)"><path d="M216.146,138.305l2.554,-1.703l1.857,-5.265l4.292,1.223l1.361,3.346l2.942,1.47l-1.858,6.116l-8.748,0.233l-2.4,-5.42Z" style="fill:#553f37;fill-rule:nonzero;"/></g><g transform="matrix(1,0,0,1,0,-12)"><path d="M229.92,233.534l0.853,6.195l-7.039,-0.155l-0.465,-6.658l6.651,0.618Z" style="fill:#2a2b2a;fill-rule:nonzero;"/></g><g transform="matrix(1,0,0,1,0,-12)"><path d="M223.425,196.062l0.929,46.917l-7.19,-1.083l-4.568,-45.989" style="fill:#72594b;fill-rule:nonzero;"/></g><g transform="matrix(1,0,0,1,0,-12)"><path d="M223.269,179.494l0.156,19.819l0.736,33.835l5.76,0.386l2.324,-34.433l-8.976,-19.607Z" style="fill:#553f37;fill-rule:nonzero;"/></g><g transform="matrix(1,0,0,1,0,-12)"><path d="M237.886,139.698l-8.704,-2.352l-2.274,5.603l-8.052,0.233l-2.709,-4.994l-8.192,3.563l4.212,6.999l-0.294,12l-4.205,67.9l29.847,0.233l-3.886,-67.633l0.704,-12.833l3.553,-8.719Z" style="fill:#ae1f25;fill-rule:nonzero;"/></g><g transform="matrix(1,0,0,1,0,-12)"><path d="M237.578,174.666l0.056,77.334l4.199,0l0.017,-79.344l-4.272,2.01Z" style="fill:#c1beba;fill-rule:nonzero;"/></g><g transform="matrix(1,0,0,1,0,-12)"><path d="M204.051,252l4.199,0l0.017,-75.906l-4.272,-2.719l0.056,78.625Z" style="fill:#c1beba;fill-rule:nonzero;"/></g><g transform="matrix(1,0,0,1,0,-12)"><path d="M206.166,189.698l0,-4.2l34.501,-0.056l0.719,4.273l-35.22,-0.017Z" style="fill:#c1beba;fill-rule:nonzero;"/></g><g transform="matrix(1,0,0,1,0,-12)"><path d="M234.229,148.75l3.999,22.426l4.246,-0.653l-4.58,-30.824l-3.665,9.051Z" style="fill:#72594b;fill-rule:nonzero;"/></g><g transform="matrix(1,0,0,1,0,-12)"><path d="M242.475,170.427l0.714,4.286l-2.317,6.399l-2.527,-1.183l1.584,-5.687l-0.18,1.835l-2.171,-1.432l0.663,-3.5l4.234,-0.718Z" style="fill:#72594b;fill-rule:nonzero;"/></g><g transform="matrix(1,0,0,1,0,-12)"><path d="M215.97,250.025l2.615,1.975l4.761,0l1.218,-9.001l-7.354,-1.141l-1.24,8.167Z" style="fill:#2a2b2a;fill-rule:nonzero;"/></g><g transform="matrix(1,0,0,1,0,-12)"><path d="M220.468,135.089l3.864,0l4.162,-5.351l-0.744,-11.446l-7.423,-1.24l-4.614,1.835l0.149,10.851l4.606,5.351Z" style="fill:#72594b;fill-rule:nonzero;"/></g><g transform="matrix(1,0,0,1,0,-12)"><path d="M203.417,169.936l-0.985,5.412l1.427,7.047l2.573,-1.444l-0.737,-6.061l0.171,1.838l2.392,-0.595l-0.966,-4.113l-3.875,-2.084Z" style="fill:#72594b;fill-rule:nonzero;"/></g><g transform="matrix(1,0,0,1,0,-12)"><path d="M212.104,148.375l-4.814,23.682l-4.052,-1.145l4.741,-29.037l4.125,6.5Z" style="fill:#72594b;fill-rule:nonzero;"/></g><g transform="matrix(1,0,0,1,0,-12)"><path d="M221.584,113.667l8.583,2.708l4.707,23.208l-4.851,5.167l0.059,-5.574l-0.31,-1.646l-1.491,-7.529l-1.864,-9.501l-5.103,-2.083l0.27,-4.75Z" style="fill:#e4e2dc;fill-rule:nonzero;"/></g><g transform="matrix(1,0,0,1,0,-12)"><path d="M221.4,118.417l-5.022,1.887l-0.588,22.196l-4.248,-0.749l0.832,-23.918l9.334,-4.25l-0.308,4.834Z" style="fill:#e4e2dc;fill-rule:nonzero;"/></g></g></g></svg>

<?xml version="1.0" encoding="UTF-8" standalone="no"?>
<!DOCTYPE svg PUBLIC "-//W3C//DTD SVG 1.1//EN" "http://www.w3.org/Graphics/SVG/1.1/DTD/svg11.dtd">
<svg width="100%" height="100%" viewBox="0 0 140 220" version="1.1" xmlns="http://www.w3.org/2000/svg" xmlns:xlink="http://www.w3.org/1999/xlink" xml:space="preserve" xmlns:serif="http://www.serif.com/" style="fill-rule:evenodd;clip-rule:evenodd;stroke-linejoin:round;stroke-miterlimit:2;">
    <g id="people-18" transform="matrix(1.27,0,0,1.27,-212.969,-84.8)">
        <g transform="matrix(1,0,0,1,0,-12)">
            <path d="M215.208,140.25L220.006,138.362L230.431,137.956L228.456,129.624L215.768,129.391L215.208,140.25Z" style="fill:rgb(228,226,220);fill-rule:nonzero;"/>
        </g>
        <g transform="matrix(1,0,0,1,0,-12)">
            <path d="M216.146,138.305L218.7,136.602L220.557,131.337L224.849,132.56L226.21,135.906L229.152,137.376L227.294,143.492L218.546,143.725L216.146,138.305Z" style="fill:rgb(85,63,55);fill-rule:nonzero;"/>
        </g>
        <g transform="matrix(1,0,0,1,0,-12)">
            <path d="M229.92,233.534L230.773,239.729L223.734,239.574L223.269,232.916L229.92,233.534Z" style="fill:rgb(42,43,42);fill-rule:nonzero;"/>
        </g>
        <g transform="matrix(1,0,0,1,0,-12)">
            <path d="M223.425,196.063L224.354,242.98L217.164,241.897L212.596,195.908" style="fill:rgb(114,89,75);fill-rule:nonzero;"/>
        </g>
        <g transform="matrix(1,0,0,1,0,-12)">
            <path d="M223.269,179.494L223.425,199.313L224.161,233.148L229.921,233.534L232.245,199.101L223.269,179.494Z" style="fill:rgb(85,63,55);fill-rule:nonzero;"/>
        </g>
        <g transform="matrix(1,0,0,1,0,-12)">
            <path d="M237.886,139.698L229.182,137.346L226.908,142.949L218.856,143.182L216.147,138.188L207.955,141.751L212.167,148.75L211.873,160.75L207.668,228.65L237.515,228.883L233.629,161.25L234.333,148.417L237.886,139.698Z" style="fill:rgb(174,31,37);fill-rule:nonzero;"/>
        </g>
        <g transform="matrix(1,0,0,1,0,-12)">
            <path d="M237.578,174.666L237.634,252L241.833,252L241.85,172.656L237.578,174.666Z" style="fill:rgb(193,190,186);fill-rule:nonzero;"/>
        </g>
        <g transform="matrix(1,0,0,1,0,-12)">
            <path d="M204.051,252L208.25,252L208.267,176.094L203.995,173.375L204.051,252Z" style="fill:rgb(193,190,186);fill-rule:nonzero;"/>
        </g>
        <g transform="matrix(1,0,0,1,0,-12)">
            <path d="M206.166,189.698L206.166,185.498L240.667,185.442L241.386,189.715L206.166,189.698Z" style="fill:rgb(193,190,186);fill-rule:nonzero;"/>
        </g>
        <g transform="matrix(1,0,0,1,0,-12)">
            <path d="M234.229,148.75L238.228,171.176L242.474,170.523L237.894,139.699L234.229,148.75Z" style="fill:rgb(114,89,75);fill-rule:nonzero;"/>
        </g>
        <g transform="matrix(1,0,0,1,0,-12)">
            <path d="M242.475,170.427L243.189,174.713L240.872,181.112L238.345,179.929L239.929,174.242L239.749,176.077L237.578,174.645L238.241,171.145L242.475,170.427Z" style="fill:rgb(114,89,75);fill-rule:nonzero;"/>
        </g>
        <g transform="matrix(1,0,0,1,0,-12)">
            <path d="M215.97,250.025L218.585,252L223.346,252L224.564,242.999L217.21,241.858L215.97,250.025Z" style="fill:rgb(42,43,42);fill-rule:nonzero;"/>
        </g>
        <g transform="matrix(1,0,0,1,0,-12)">
            <path d="M220.468,135.089L224.332,135.089L228.494,129.738L227.75,118.292L220.327,117.052L215.713,118.887L215.862,129.738L220.468,135.089Z" style="fill:rgb(114,89,75);fill-rule:nonzero;"/>
        </g>
        <g transform="matrix(1,0,0,1,0,-12)">
            <path d="M203.417,169.937L202.432,175.349L203.859,182.396L206.432,180.952L205.695,174.891L205.866,176.729L208.258,176.134L207.292,172.021L203.417,169.937Z" style="fill:rgb(114,89,75);fill-rule:nonzero;"/>
        </g>
        <g transform="matrix(1,0,0,1,0,-12)">
            <path d="M212.104,148.375L207.29,172.057L203.238,170.912L207.979,141.875L212.104,148.375Z" style="fill:rgb(114,89,75);fill-rule:nonzero;"/>
        </g>
        <g transform="matrix(1,0,0,1,0,-12)">
            <path d="M221.584,113.667L230.167,116.375L234.874,139.583L230.023,144.75L230.082,139.176L229.772,137.53L228.281,130.001L226.417,120.5L221.314,118.417L221.584,113.667Z" style="fill:rgb(228,226,220);fill-rule:nonzero;"/>
        </g>
        <g transform="matrix(1,0,0,1,0,-12)">
            <path d="M221.4,118.417L216.378,120.304L215.79,142.5L211.542,141.751L212.374,117.833L221.708,113.583L221.4,118.417Z" style="fill:rgb(228,226,220);fill-rule:nonzero;"/>
        </g>
    </g>
</svg>
